fs/document_page_bottom_right_20_filled.svg

<svg viewBox="0 0 20 20" fill="none" xmlns="http://www.w3.org/2000/svg" height="1em" width="1em">
  <path d="M11.2467 14.4976L11.4664 12.9976H12.7057L12.486 14.4976H11.2467ZM14.5 18C15.3284 18 16 17.3284 16 16.5V3.5C16 2.67157 15.3284 2 14.5 2H5.5C4.67157 2 4 2.67157 4 3.5L4 16.5C4 17.3284 4.67157 18 5.5 18H14.5ZM13.9275 11.5558L13.8628 11.9976H14.5C14.7761 11.9976 15 12.2214 15 12.4976C15 12.7737 14.7761 12.9976 14.5 12.9976H13.7164L13.4967 14.4976H14C14.2761 14.4976 14.5 14.7214 14.5 14.9976C14.5 15.2737 14.2761 15.4976 14 15.4976H13.3502L13.1928 16.5724C13.1528 16.8456 12.8988 17.0346 12.6256 16.9946C12.3524 16.9546 12.1633 16.7007 12.2033 16.4275L12.3395 15.4976H11.1002L10.9428 16.5724C10.9028 16.8456 10.6488 17.0346 10.3756 16.9946C10.1024 16.9546 9.91333 16.7007 9.95334 16.4275L10.0895 15.4976H9.5C9.22386 15.4976 9 15.2737 9 14.9976C9 14.7214 9.22386 14.4976 9.5 14.4976H10.236L10.4557 12.9976H10C9.72386 12.9976 9.5 12.7737 9.5 12.4976C9.5 12.2214 9.72386 11.9976 10 11.9976H10.6022L10.6881 11.4109C10.7281 11.1376 10.9821 10.9486 11.2553 10.9886C11.5285 11.0286 11.7176 11.2826 11.6775 11.5558L11.6128 11.9976H12.8522L12.9381 11.4109C12.9781 11.1376 13.2321 10.9486 13.5053 10.9886C13.7785 11.0286 13.9676 11.2826 13.9275 11.5558Z" fill="#212121"/>
</svg>

<svg viewBox="0 0 20 20" fill="none" xmlns="http://www.w3.org/2000/svg" height="1em" width="1em">
  <path d="m11.247 14.498.22-1.5h1.239l-.22 1.5h-1.24ZM14.5 18a1.5 1.5 0 0 0 1.5-1.5v-13A1.5 1.5 0 0 0 14.5 2h-9A1.5 1.5 0 0 0 4 3.5v13A1.5 1.5 0 0 0 5.5 18h9Zm-.572-6.444-.065.442h.637a.5.5 0 1 1 0 1h-.784l-.22 1.5H14a.5.5 0 1 1 0 1h-.65l-.157 1.074a.5.5 0 0 1-.99-.145l.136-.93H11.1l-.157 1.075a.5.5 0 0 1-.99-.145l.136-.93H9.5a.5.5 0 0 1 0-1h.736l.22-1.5H10a.5.5 0 0 1 0-1h.602l.086-.586a.5.5 0 1 1 .99.145l-.065.442h1.24l.085-.587a.5.5 0 1 1 .99.145Z" fill="#212121"/>
</svg>
